X: 362
T: Beside a Silvery Stream
M:3/4
L:1/8
B:O'Neill's 362
N:"Animated."
N:"collected by J. O'Neill."
N:All ornaments (~) are trills.
Z:Transcribed by Chris Falt, cfalt@trytel.com
K:D
fed|c2 A2 G2|F4 GE|D2 E2 c2|d4 ed|
c2 A2 G2|~F4 GE|D6|D3 fed|
c2 A2 G2|F2 F2 GE|D2 E2 c2|d2 C2 ed|
c2 A2 G2|~F4 GE|D6|D3||
EFG|A2 d2 c2|d4 cd|e2 d2 c2|d4 AG|
F2 AB cA|d2 cd ec|d4 f2|e3 fed|
c2 A2 G2|F4 GE|D2 E2 c2|d3 fed|
c2 A2 G2|~F4 GE|D6|D3||


